Hatter-kde/status/24/notification-new-70-symbolic.svg

<?xml version="1.0" encoding="UTF-8" standalone="no"?>
<svg
   xmlns:dc="http://purl.org/dc/elements/1.1/"
   xmlns:cc="http://creativecommons.org/ns#"
   xmlns:rdf="http://www.w3.org/1999/02/22-rdf-syntax-ns#"
   xmlns:svg="http://www.w3.org/2000/svg"
   xmlns="http://www.w3.org/2000/svg"
   height="24"
   width="24"
   version="1.1"
   id="svg8">
  <metadata
     id="metadata14">
    <rdf:RDF>
      <cc:Work
         rdf:about="">
        <dc:format>image/svg+xml</dc:format>
        <dc:type
           rdf:resource="http://purl.org/dc/dcmitype/StillImage" />
        <dc:title />
      </cc:Work>
    </rdf:RDF>
  </metadata>
  <defs
     id="defs12" />
  <path
     id="path2-3-5-2-2-5-19-5"
     d="M 13.990234 5.0097656 C 13.600547 5.0126677 13.230786 5.2442701 13.072266 5.6269531 L 13.068359 5.6347656 C 11.264109 5.3809999 9.4686312 6.491285 8.7695312 8.1738281 C 8.7695312 8.1738281 6.8572275 12.793948 5.0859375 12.732422 C 5.0669375 12.736422 5.05155 12.751279 5.03125 12.755859 C 4.95415 12.777379 4.8823863 12.812071 4.8164062 12.857422 C 4.7894062 12.875482 4.7619812 12.88574 4.7382812 12.90625 C 4.6484812 12.9805 4.57761 13.076631 4.53125 13.183594 C 4.37206 13.567928 4.5541 14.003296 4.9375 14.162109 L 14.636719 18.181641 C 15.021059 18.340838 15.457987 18.159728 15.617188 17.775391 C 15.659987 17.363636936 15.677016 17.549628 15.363636016 17.433594 C 15.664016 17.402364 15.652284 17.37427 15.646484 17.34375 C 15.631684 17.26484 15.604153 17.188943 15.564453 17.119141 C 15.554253 17.101931 15.554469 17.081113 15.542969 17.064453 C 14.246589 15.856393 16.162109 11.236328 16.162109 11.236328 C 16.857889 9.5513308 16.372536 7.4961921 14.916016 6.4003906 L 14.919922 6.3925781 C 15.131272 5.8823335 14.889106 5.2972859 14.378906 5.0859375 C 14.251346 5.0331004 14.12013 5.0087983 13.990234 5.0097656 z M 6.8964844 16.060547 C 6.7832284 16.888384 7.1922929 17.730166 7.9824219 18.121094 C 8.8566329 18.552915 9.8918904 18.285446 10.458984 17.535156 L 6.8964844 16.060547 z "
     style="overflow:visible;isolation:auto;mix-blend-mode:normal;fill:#f2f2f2;marker:none" />
</svg>

<?xml version="1.0" encoding="UTF-8"?>
<svg id="svg8" width="24" height="24" version="1.1" xmlns="http://www.w3.org/2000/svg" xmlns:cc="http://creativecommons.org/ns#" xmlns:dc="http://purl.org/dc/elements/1.1/" xmlns:rdf="http://www.w3.org/1999/02/22-rdf-syntax-ns#">
 <metadata id="metadata14">
  <rdf:RDF>
   <cc:Work rdf:about="">
    <dc:format>image/svg+xml</dc:format>
    <dc:type rdf:resource="http://purl.org/dc/dcmitype/StillImage"/>
    <dc:title/>
   </cc:Work>
  </rdf:RDF>
 </metadata>
 <path id="path2-3-5-2-2-5-19-5" d="m13.99 5.0098c-0.38969 0.0029021-0.75945 0.2345-0.91797 0.61719l-0.003907 0.0078125c-1.8042-0.25377-3.5997 0.85652-4.2988 2.5391 0 0-1.9123 4.6201-3.6836 4.5586-0.019 4e-3 -0.034388 0.018857-0.054688 0.023437-0.0771 0.02152-0.14886 0.056212-0.21484 0.10156-0.027 0.01806-0.054425 0.028318-0.078125 0.048828-0.0898 0.07425-0.16067 0.17038-0.20703 0.27734-0.15919 0.38433 0.02285 0.8197 0.40625 0.97852l9.6992 4.0195c0.38434 0.1592 0.82127-0.021913 0.98047-0.40625 0.042799-0.41175 0.059828-0.22576-0.25355-0.3418 0.30038-0.03123 0.28865-0.059324 0.28285-0.089844-0.0148-0.07891-0.042331-0.15481-0.082031-0.22461-0.0102-0.01721-0.009984-0.038028-0.021484-0.054688-1.2964-1.2081 0.61914-5.8281 0.61914-5.8281 0.69578-1.685 0.21043-3.7401-1.2461-4.8359l0.003906-0.0078125c0.21135-0.51024-0.030816-1.0953-0.54102-1.3066-0.12756-0.052837-0.25878-0.077139-0.38867-0.076172zm-7.0937 11.051c-0.11326 0.82784 0.29581 1.6696 1.0859 2.0605 0.87421 0.43182 1.9095 0.16435 2.4766-0.58594l-3.5625-1.4746z" color="#bebebe" fill="#fff" style="isolation:auto;mix-blend-mode:normal"/>
</svg>
